static/img/in-field/nav-state-white-pressed.svg

<svg fill="none" height="64" viewBox="0 0 278 64" width="278" xmlns="http://www.w3.org/2000/svg"><path d="m.5.5h277v63h-277z" fill="#fff"/><rect fill="#0e416c" height="56" rx="4" width="56" x="115" y="4"/><rect fill="#b7b9c3" height="56" rx="2" width="56" x="115" y="4"/><path clip-rule="evenodd" d="m131 26.6667v-2.6667h24v2.6667zm0 6.6666h24v-2.6666h-24zm0 6.6667h24v-2.6667h-24z" fill="#252a2e" fill-rule="evenodd"/><path d="m.5.5h277v63h-277z" stroke="#b7b9c3"/></svg>

<svg width="278" height="64" viewBox="0 0 278 64" fill="none" xmlns="http://www.w3.org/2000/svg"><rect x=".5" y=".5" width="277" height="63" fill="#fff"/><rect x="115" y="4" width="56" height="56" rx="4" fill="#0E416C"/><rect x="115" y="4" width="56" height="56" rx="2" fill="#B7B9C3"/><path fill-rule="evenodd" clip-rule="evenodd" d="M131 26.6667V24H155V26.6667H131ZM131 33.3333H155V30.6667H131V33.3333ZM131 40H155V37.3333H131V40Z" fill="#252A2E"/><rect x=".5" y=".5" width="277" height="63" stroke="#B7B9C3"/></svg>
